X:236
T:Two Cruisers - Houghton
%%VWML:SBG-1-2-415-0
F:http://www.vwml.org/record/SBG/1/2/415
Z:Original Sibelius transcriptions by M. & S. Graebe
M:4/4
I:linebreak $
K:C
V:1 treble nm="P1"
V:1
 A/ | d A d e | (f e) d3/2 e/ | f e/d/ ^c e | A3 A |$ d A d e | (f e) d e/f/ | g f e e | d2 z x | %9

